X:164
T: IM WALDE STEHT EIN TANNENBAUM
N: F0298
O: Europa, Mitteleuropa, Deutschland
R: Jugend - Lied, Weihnachten
M: 6/8
L: 1/8
K: F
C | F2Ac=Bc | d2cc2
A | G2ce2d | c4z
G | G2ABAB | d2cc2
A | c2BG2C | F4z
G | G2ABAB | d2cc2
A | c2BG2C | F4z

